public/microsoft logo.svg

<svg width="160" height="36" viewBox="0 0 160 36" fill="none" xmlns="http://www.w3.org/2000/svg">
<g clip-path="url(#clip0_144_526)">
<path d="M160.001 16.2654V13.4515H156.507V9.07696L156.389 9.11314L153.107 10.1173L153.042 10.137V13.4515H147.862V11.6052C147.862 10.7455 148.055 10.0875 148.433 9.64866C148.81 9.21509 149.348 8.99473 150.034 8.99473C150.528 8.99473 151.039 9.11101 151.553 9.34027L151.682 9.39773V6.43433L151.621 6.41208C151.141 6.2397 150.489 6.15283 149.68 6.15283C148.661 6.15283 147.735 6.37455 146.927 6.81412C146.119 7.25426 145.483 7.88266 145.038 8.68169C144.594 9.47976 144.369 10.4015 144.369 11.4214V13.4515H141.936V16.2654H144.369V28.1196H147.862V16.2654H153.042V23.7986C153.042 26.9011 154.506 28.4734 157.392 28.4734C157.866 28.4734 158.365 28.4177 158.875 28.3088C159.394 28.1971 159.747 28.0855 159.955 27.9663L160.001 27.9392V25.0993L159.859 25.1933C159.669 25.3198 159.433 25.423 159.156 25.4996C158.878 25.5777 158.646 25.617 158.467 25.617C157.79 25.617 157.29 25.4348 156.98 25.0753C156.666 24.7125 156.507 24.0779 156.507 23.1905V16.2654H160.001ZM134.136 25.6173C132.868 25.6173 131.869 25.1969 131.164 24.3688C130.456 23.5365 130.096 22.3499 130.096 20.8424C130.096 19.2871 130.456 18.0698 131.165 17.2228C131.869 16.3813 132.859 15.9544 134.107 15.9544C135.319 15.9544 136.283 16.3622 136.973 17.1672C137.667 17.9763 138.019 19.184 138.019 20.7575C138.019 22.3503 137.688 23.5738 137.035 24.3922C136.387 25.2046 135.411 25.6173 134.136 25.6173ZM134.291 13.0981C131.873 13.0981 129.952 13.8068 128.582 15.2047C127.213 16.6027 126.519 18.5372 126.519 20.9552C126.519 23.2517 127.196 25.099 128.533 26.4448C129.869 27.7911 131.688 28.4731 133.938 28.4731C136.282 28.4731 138.165 27.7546 139.534 26.3374C140.903 24.9216 141.597 23.0054 141.597 20.6439C141.597 18.3114 140.946 16.4504 139.662 15.1135C138.377 13.7761 136.57 13.0981 134.291 13.0981ZM120.887 13.0981C119.242 13.0981 117.881 13.5189 116.841 14.3487C115.796 15.1833 115.265 16.2781 115.265 17.6028C115.265 18.2914 115.38 18.9032 115.605 19.4219C115.832 19.9425 116.183 20.4006 116.649 20.7853C117.112 21.1668 117.825 21.5665 118.772 21.973C119.567 22.3003 120.161 22.5774 120.538 22.7956C120.906 23.0094 121.167 23.2245 121.315 23.4339C121.458 23.6388 121.531 23.9191 121.531 24.2654C121.531 25.2508 120.793 25.7302 119.275 25.7302C118.712 25.7302 118.069 25.6127 117.365 25.3808C116.661 25.1492 116.003 24.8162 115.41 24.3892L115.265 24.2853V27.6481L115.318 27.6728C115.813 27.9009 116.436 28.0932 117.17 28.2447C117.903 28.3962 118.569 28.4734 119.148 28.4734C120.933 28.4734 122.371 28.0505 123.42 27.2159C124.475 26.3754 125.011 25.2548 125.011 23.8841C125.011 22.8954 124.722 22.0475 124.155 21.3637C123.591 20.6854 122.612 20.0628 121.247 19.5124C120.16 19.0759 119.463 18.7136 119.176 18.4355C118.899 18.1668 118.758 17.7868 118.758 17.3057C118.758 16.8791 118.932 16.5374 119.288 16.2605C119.647 15.9823 120.147 15.8409 120.775 15.8409C121.356 15.8409 121.952 15.9328 122.544 16.1129C123.136 16.293 123.655 16.5343 124.089 16.8295L124.232 16.9271V13.7371L124.177 13.7135C123.777 13.5419 123.249 13.395 122.608 13.2759C121.97 13.1578 121.391 13.0981 120.887 13.0981ZM106.159 25.6173C104.892 25.6173 103.892 25.1969 103.188 24.3688C102.479 23.5365 102.12 22.3503 102.12 20.8424C102.12 19.2871 102.479 18.0698 103.188 17.2228C103.893 16.3813 104.882 15.9544 106.131 15.9544C107.342 15.9544 108.306 16.3622 108.997 17.1672C109.691 17.9763 110.043 19.184 110.043 20.7575C110.043 22.3503 109.711 23.5738 109.058 24.3922C108.41 25.2046 107.435 25.6173 106.159 25.6173ZM106.315 13.0981C103.896 13.0981 101.975 13.8068 100.606 15.2047C99.2367 16.6027 98.5421 18.5372 98.5421 20.9552C98.5421 23.2527 99.2201 25.099 100.556 26.4448C101.893 27.7911 103.711 28.4731 105.961 28.4731C108.305 28.4731 110.189 27.7546 111.558 26.3374C112.927 24.9216 113.621 23.0054 113.621 20.6439C113.621 18.3114 112.969 16.4504 111.685 15.1135C110.4 13.7761 108.593 13.0981 106.315 13.0981ZM93.24 15.9916V13.4515H89.7896V28.1192H93.24V20.6162C93.24 19.3402 93.5292 18.2922 94.1 17.5005C94.6636 16.7183 95.4146 16.3219 96.3315 16.3219C96.6422 16.3219 96.991 16.3731 97.3689 16.4745C97.7428 16.5753 98.0137 16.6846 98.1735 16.7997L98.3184 16.9048V13.4264L98.2625 13.4024C97.9412 13.2658 97.4867 13.1969 96.9115 13.1969C96.0446 13.1969 95.2685 13.4755 94.604 14.024C94.0207 14.5061 93.5989 15.1672 93.2766 15.9916H93.24ZM83.6108 13.0981C82.0281 13.0981 80.6161 13.4376 79.415 14.1066C78.2116 14.7772 77.281 15.7347 76.6478 16.9522C76.0175 18.1668 75.6975 19.5855 75.6975 21.1676C75.6975 22.5534 76.0078 23.8253 76.6211 24.946C77.2348 26.0688 78.1035 26.9471 79.203 27.5564C80.3009 28.1648 81.5699 28.4734 82.9749 28.4734C84.6146 28.4734 86.0145 28.1455 87.137 27.4991L87.1823 27.473V24.312L87.0374 24.4179C86.529 24.7882 85.9607 25.0838 85.3494 25.2968C84.7396 25.5096 84.1835 25.6172 83.6962 25.6172C82.3422 25.6172 81.2555 25.1935 80.4665 24.3585C79.6758 23.5221 79.275 22.3479 79.275 20.8702C79.275 19.3832 79.693 18.1788 80.517 17.29C81.3383 16.4039 82.4272 15.9545 83.753 15.9545C84.8872 15.9545 85.9923 16.3385 87.0378 17.0969L87.1823 17.202V13.8714L87.1357 13.8451C86.7422 13.6249 86.2057 13.443 85.5394 13.3051C84.8761 13.1675 84.2274 13.0981 83.6108 13.0981ZM73.3211 13.4516H69.8708V28.1192H73.3211V13.4516ZM71.6312 7.20303C71.0633 7.20303 70.5681 7.39631 70.1612 7.77938C69.7526 8.16362 69.5452 8.6473 69.5452 9.21804C69.5452 9.77988 69.7501 10.2547 70.1546 10.6286C70.5566 11.0015 71.0535 11.1905 71.6312 11.1905C72.2087 11.1905 72.7075 11.0015 73.1143 10.6292C73.5239 10.2547 73.7315 9.77988 73.7315 9.21804C73.7315 8.66722 73.5295 8.18838 73.1312 7.79486C72.7334 7.40211 72.2286 7.20303 71.6312 7.20303ZM63.0225 12.3694V28.1191H66.5437V7.6522H61.6703L55.4758 22.8544L49.4644 7.6522H44.3926V28.1191H47.7015V12.3679H47.8153L54.1631 28.1191H56.6602L62.9089 12.3694H63.0225Z" fill="#706D6E"/>
<path d="M16.233 17.0436H0.00195312V0.8125H16.233V17.0436Z" fill="#F1511B"/>
<path d="M34.1528 17.0436H17.9219V0.8125H34.1528V17.0436Z" fill="#80CC28"/>
<path d="M16.2326 34.9708H0.00195312V18.7397H16.2326V34.9708Z" fill="#00ADEF"/>
<path d="M34.1528 34.9708H17.9219V18.7397H34.1528V34.9708Z" fill="#FBBC09"/>
</g>
<defs>
<clipPath id="clip0_144_526">
<rect width="160" height="34.375" fill="white" transform="translate(0 0.8125)"/>
</clipPath>
</defs>
</svg>

<svg xmlns="http://www.w3.org/2000/svg" width="160" height="36" fill="none" viewBox="0 0 160 36"><g clip-path="url(#a)"><path fill="#706d6e" d="M160.001 16.265v-2.814h-3.494V9.078l-.118.036-3.282 1.004-.065.02v3.314h-5.18v-1.846c0-.86.193-1.517.571-1.956.377-.434.915-.654 1.601-.654.494 0 1.005.116 1.519.345l.129.058V6.434l-.061-.022c-.48-.172-1.132-.26-1.941-.26-1.019 0-1.945.223-2.753.662a4.7 4.7 0 0 0-1.889 1.868c-.444.798-.669 1.72-.669 2.74v2.03h-2.433v2.813h2.433V28.12h3.493V16.265h5.18V23.8c0 3.102 1.464 4.674 4.35 4.674.474 0 .973-.055 1.483-.164.519-.112.872-.224 1.08-.343l.046-.027V25.1l-.142.094q-.286.191-.703.307-.419.117-.689.117c-.677 0-1.177-.182-1.487-.542-.314-.363-.473-.997-.473-1.884v-6.926zm-25.865 9.352c-1.268 0-2.267-.42-2.972-1.248-.708-.832-1.068-2.02-1.068-3.527 0-1.555.36-2.772 1.069-3.62.704-.84 1.694-1.268 2.942-1.268 1.212 0 2.176.408 2.866 1.213.694.81 1.046 2.017 1.046 3.59 0 1.593-.331 2.817-.984 3.635-.648.813-1.624 1.225-2.899 1.225m.155-12.519c-2.418 0-4.339.709-5.709 2.107s-2.063 3.332-2.063 5.75c0 2.297.677 4.144 2.014 5.49s3.155 2.028 5.405 2.028c2.344 0 4.227-.718 5.596-2.136 1.369-1.415 2.063-3.332 2.063-5.693 0-2.333-.651-4.194-1.935-5.53-1.285-1.338-3.092-2.016-5.371-2.016m-13.404 0c-1.645 0-3.006.42-4.046 1.25-1.045.835-1.576 1.93-1.576 3.255 0 .688.115 1.3.34 1.819.227.52.578.979 1.044 1.363.463.382 1.176.782 2.123 1.188.795.327 1.389.604 1.766.823q.553.321.777.638c.143.205.216.485.216.831 0 .986-.738 1.465-2.256 1.465-.563 0-1.206-.117-1.91-.35a7.2 7.2 0 0 1-1.955-.99l-.145-.105v3.363l.053.025c.495.228 1.118.42 1.852.572a10 10 0 0 0 1.978.228c1.785 0 3.223-.422 4.272-1.257 1.055-.84 1.591-1.961 1.591-3.332 0-.989-.289-1.837-.856-2.52-.564-.679-1.543-1.301-2.908-1.852-1.087-.436-1.784-.798-2.071-1.076-.277-.27-.418-.65-.418-1.13 0-.427.174-.769.53-1.046.359-.278.859-.42 1.487-.42.581 0 1.177.093 1.769.273a5.7 5.7 0 0 1 1.545.716l.143.098v-3.19l-.055-.024c-.4-.171-.928-.318-1.569-.437a9.6 9.6 0 0 0-1.721-.178m-14.728 12.52c-1.267 0-2.267-.421-2.971-1.25-.709-.831-1.068-2.018-1.068-3.526 0-1.555.359-2.772 1.068-3.62.705-.84 1.694-1.268 2.943-1.268 1.211 0 2.175.408 2.866 1.213.694.81 1.046 2.017 1.046 3.59 0 1.593-.332 2.817-.985 3.635-.648.813-1.623 1.225-2.899 1.225m.156-12.52c-2.419 0-4.34.709-5.709 2.107-1.37 1.398-2.064 3.332-2.064 5.75 0 2.298.678 4.144 2.014 5.49 1.337 1.346 3.155 2.028 5.405 2.028 2.344 0 4.228-.718 5.597-2.136 1.369-1.415 2.063-3.332 2.063-5.693 0-2.333-.652-4.194-1.936-5.53-1.285-1.338-3.092-2.016-5.37-2.016M93.24 15.992v-2.54h-3.45v14.667h3.45v-7.503c0-1.276.29-2.324.86-3.116.564-.782 1.315-1.178 2.232-1.178.31 0 .659.051 1.037.152q.563.152.805.326l.144.105v-3.479l-.055-.024c-.322-.136-.776-.205-1.352-.205a3.54 3.54 0 0 0-2.307.827c-.583.482-1.005 1.143-1.327 1.968zm-9.63-2.894c-1.582 0-2.994.34-4.195 1.009a6.8 6.8 0 0 0-2.767 2.845c-.63 1.215-.95 2.633-.95 4.216 0 1.385.31 2.657.923 3.778a6.5 6.5 0 0 0 2.582 2.61c1.098.609 2.367.917 3.772.917 1.64 0 3.04-.328 4.162-.974l.045-.026v-3.161l-.145.106a6.5 6.5 0 0 1-1.688.879c-.61.213-1.166.32-1.653.32-1.354 0-2.44-.424-3.23-1.259-.79-.836-1.191-2.01-1.191-3.488 0-1.487.418-2.691 1.242-3.58.821-.886 1.91-1.335 3.236-1.335 1.134 0 2.24.383 3.285 1.142l.144.105v-3.33l-.046-.027c-.394-.22-.93-.402-1.597-.54a9.5 9.5 0 0 0-1.928-.207m-10.289.354h-3.45v14.667h3.45zm-1.69-6.249c-.568 0-1.063.193-1.47.576a1.9 1.9 0 0 0-.616 1.439c0 .562.205 1.037.61 1.41.402.373.898.563 1.476.563s1.076-.19 1.483-.562c.41-.374.617-.85.617-1.411 0-.55-.201-1.03-.6-1.423s-.902-.592-1.5-.592m-8.608 5.166v15.75h3.52V7.652H61.67l-6.194 15.202-6.012-15.202h-5.071V28.12h3.309V12.368h.113l6.348 15.751h2.497l6.249-15.75z"/><path fill="#f1511b" d="M16.233 17.044H.002V.813h16.231z"/><path fill="#80cc28" d="M34.153 17.044H17.922V.813h16.23z"/><path fill="#00adef" d="M16.233 34.97H.002V18.74h16.23z"/><path fill="#fbbc09" d="M34.153 34.97H17.922V18.74h16.23z"/></g><defs><clipPath id="a"><path fill="#fff" d="M0 .813h160v34.375H0z"/></clipPath></defs></svg>
